!!!COM: Scarlatti, Domenico
!!!CDT: 1685///-1757///
!!!OTL: Sonata in A Major, K.369, L.240
!!!SCT: K. 514
!!!SCT: L. 001
!!!OMD: Allegro
**kern	**kern	**dynam
*staff2	*staff1	*staff1
*Icemba	*Icemba	*Icemba
*>[A,A,B,B]	*>[A,A,B,B]	*>[A,A,B,B]
*>norep[A,B]	*>norep[A,B]	*>norep[A,B]
*>A	*>A	*>A
*clefF4	*clefG2	*clefG2
*k[f#c#g#]	*k[f#c#g#]	*k[f#c#g#]
*M3/8	*M3/8	*M3/8
*MM132	*MM132	*MM132
=1-	=1-	=1-
4.A\	(16aa\LL	f
.	16cc#\	.
.	16dd\	.
.	16b\	.
.	16cc#\	.
.	16a\JJ)	.
=2	=2	=2
4.A\	(16aa\LL	.
.	16cc#\	.
.	16dd\	.
.	16b\	.
.	16cc#\	.
.	16a\JJ)	.
=3	=3	=3
(16a\LL	4.aa\	.
16c#\	.	.
16d\	.	.
16B\	.	.
16c#\	.	.
16A\JJ)	.	.
=4	=4	=4
(16a\LL	4.aa\	.
16c#\	.	.
16d\	.	.
16B\	.	.
16c#\	.	.
16A\JJ)	.	.
=5	=5	=5
4.a\	(16ccc#\LL	.
.	16aa\	.
.	16ee\	.
.	16cc#\	.
.	16a\	.
.	16e\JJ)	.
=6	=6	=6
(16D\LL	(16aa\LK	.
16d\	8ff#\	.
16C#\	.	.
16c#\	8ee\	.
16BB\	.	.
16B\JJ	16dd\Jk)	.
=7	=7	=7
4.AA/)	16ccc#\LL	.
.	16aa\	.
.	16ee\	.
.	16cc#\	.
.	16a\	.
.	16e\JJ	.
=8	=8	=8
(16D\LL	(16aa\LK	.
16d\	8ff#\	.
16C#\	.	.
16c#\	8ee\	.
16BB\	.	.
16B\JJ	16dd\Jk)	.
=9	=9	=9
16AA\LL	4cc#\	.
16C#\	.	.
16E\	.	.
(16A\)	.	.
16BB\	8dd\	mf
16G#\JJ	.	.
=10	=10	=10
16C#\LL	8ee'\L	.
16A\	.	.
16D\	8ff#'\	.
16B\	.	.
16E\	8gg#'\J	.
16c#\JJ	.	.
=11	=11	=11
16F#\LL	8aa'\L	f
16d\	.	.
16G#\	8dd'\	.
16e\	.	.
16A\	[8cc#'\J	.
16e\JJ	.	.
=12	=12	=12
4.E\)	8cc#\L]	.
.	16b\L	.
.	16a\J	.
.	8b'\J	.
=13	=13	=13
4.E\ 4.e\	(16ee\LL	p
.	16g#\	.
.	16a\	.
.	16f#\	.
.	16g#\	.
.	16e\JJ)	.
=14	=14	=14
4.E\ 4.d\	(16ee\LL	.
.	16g#\	.
.	16a\	.
.	16f#\	.
.	16g#\	.
.	16e\JJ)	.
=15	=15	=15
4.E\ 4.d\	(16ee\LL	.
.	16g#\	.
.	16a\	.
.	16f#\	.
.	16g#\	.
.	16e\JJ)	.
=16	=16	=16
4.E\ 4.c#\	(16ee\LL	<
.	16a#\	(
.	16b\	(
.	16g#\	(
.	16a#\	(
.	16f#\JJ)	(
=17	=17	=17
4.E\ 4.c#\	(16ee\LL	(
.	16a#\	(
.	16b\	(
.	16g#\	(
.	16a#\	(
.	16f#\JJ)	(
=18	=18	=18
4.D#\ 4.B\	(16ff#\LL	(
.	16b\	(
.	16cc#\	(
.	16a#\	(
.	16b\	(
.	16f#\JJ)	(
=19	=19	=19
4.Dn\ 4.B\	(16ff#\LL	(
.	16b\	(
.	16cc#\	(
.	16a#\	(
.	16b\	(
.	16f#\JJ)	(
=20	=20	=20
4.C#\ 4.A\	(16ee\LL	(
.	16an\	(
.	16b\	(
.	16g#\	(
.	16a\	(
.	16e\JJ)	[
=21	=21	=21
(16BB\LL	4.b\ 4.aa\	f
16D#\	.	.
16F#\	.	.
16B\	.	.
16d#\	.	.
16B\JJ	.	.
=22	=22	=22
16E\LL	4.b\ 4.gg#\	.
16G#\	.	.
16B\	.	.
16e\	.	.
16g#\	.	.
16e\JJ	.	.
*clefG2	*	*
=23	=23	=23
16A/LL	4.ee\ 4.ccc#\	.
16c#/	.	.
16e/	.	.
16a/	.	.
16cc#/	.	.
16a/JJ	.	.
=24	=24	=24
8g#'/L)	16bb\LL	.
.	16ee\	.
8f#'/	16dd#\	.
.	16aa\	.
8e'/J	16gg#\	.
.	16b\JJ	.
=25	=25	=25
8A'/L	8cc#'\L	.
8B'/	(16ff#\K	.
.	8dd#\	.
8c#'/J	.	.
.	16ee\Jk	.
=26	=26	=26
8B'/ 8b'/L	16ff#'\LK)	.
.	(8dd#\	.
8A'/ 8a'/	.	.
.	8cc#\	.
8G#'/ 8g#'/J	.	.
.	[16b\Jk	.
*clefF4	*	*
=27	=27	=27
8F#'\ 8f#'\L	16b/LK]	.
.	8a/	.
8E'\ 8e'\	.	.
.	8g#/	.
8D#'\ 8d#'\J	.	.
.	[16f#/Jk)	.
=28	=28	=28
8E'\ 8e'\L	8f#/L]	.
8D#'\ 8d#'\	(16g#/L	.
.	16f#/J	.
8C#'\ 8c#'\J	8e'/J)	.
=29	=29	=29
4.BB^/	(16b/LL	.
.	16f#/	.
.	16d#/	.
.	16B/JJ	.
*	*clefF4	*clefF4
.	16F#\LL	.
.	16D#\JJ	.
=30	=30	=30
4.r	4.BB/)	.
=31	=31	=31
4.r	4.r	.
*	*clefG2	*clefG2
=32	=32	=32
4.r	8e'/L	p
.	8e'/	.
.	8e'/J	.
=33	=33	=33
(4.d\	8e'/L	.
.	8e'/	.
.	8e'/J	.
=34	=34	=34
4.cn\)	8e'/L	.
.	8e'/	.
.	8a'/J	.
=35	=35	=35
(4.A\ 4.cn\	8e'/L	<
.	8e'/	(
.	8a'/J	(
=36	=36	=36
4.G#\ 4.B\	8e'\L	(
.	8e'\	(
.	8ee'\J	(
=37	=37	=37
4.E\ 4.B\	8e'\L	(
.	8e'\	(
.	8gg#'\J	(
=38	=38	=38
4.Cn\) 4.A\	8e'\L	(
.	8e'\	(
.	8cccn'\J	(
=39	=39	=39
4.AA^\ 4.E^\ 4.A^\	8e'\L	(
.	8e'\	(
.	8eee'\J	(
=40	=40	=40
4.GG#^\ 4.E^\ 4.G#^\	8e'\L	(
.	8e'\	(
.	8eee'\J	(
=41	=41	=41
4.GG#^\ 4.E^\ 4.G#^\	8e'\L	(
.	8e'\	[
.	([8eee^\J	f
=42	=42	=42
4.AA^\ 4.E^\ 4.A^\	16eee\LL]	.
.	16cccn\	.
.	16aa\	.
.	16ee\	.
.	16ccn\	.
.	16a\JJ	.
=43	=43	=43
4.AA^\ 4.E^\ 4.A^\	16ee/LL	.
.	16ccn/	.
.	16a/	.
.	16e/	.
.	16cn/	.
.	16A/JJ	.
=44	=44	=44
4.BBB^/ 4.BB^/	8G#'/)	.
.	4F#/	.
*clefG2	*	*
=45	=45	=45
(16b/LL	8dd#'\ 8ff#'\L	.
16B/JJ)	.	.
*clefF4	*	*
(16e\LL	8ee'\ 8gg#'\	.
16E\)	.	.
(16B\	8ff#'\ 8aa'\J	.
16BB\JJ)	.	.
=46	=46	=46
4.EE^/ 4.E^/	16ee\ (16gg#\LL	.
.	16ff#\	.
.	16gg#\	.
.	16aa\J	.
.	8gg#'\ 8bb'\J)	.
=47	=47	=47
(16e\LL	8ee'\ 8gg#'\L	.
16E\	.	.
(16B\)	8dd#'\ 8ff#'\	.
16BB\)	.	.
(16E\	8ee'\J	.
16EE\JJ)	.	.
=48	=48	=48
4.BBB^/ 4.BB^/	(16ff#\LL	.
.	16ee\	.
.	16ff#\	.
.	16gg#\J	.
.	8ff#'\ 8aa'\J)	.
*clefG2	*	*
=49	=49	=49
(16b/LL	8dd#'\ 8ff#'\L	.
16B/JJ)	.	.
*clefF4	*	*
(16e\LL	8ee'\ 8gg#'\	.
16E\)	.	.
(16B\	8ff#'\ 8aa'\J	.
16BB\JJ)	.	.
=50	=50	=50
8E'\L	(16gg#\LL	.
.	16ff#\	.
8F#'\	16gg#\	.
.	16aa\	.
8G#'\J	16bb\	.
.	16b\JJ	.
=51	=51	=51
8A'\L	16cc#\LL	.
.	16aa\	.
8B'\	16gg#\	.
.	16ff#\	.
8BB'\J	16ee\	.
.	16dd#\JJ	.
=52	=52	=52
4.EE^/	8ee'\L)	.
.	8e'\	p
.	8e'\J	.
=53	=53	=53
4.E\ (4.d\	8e'/L	.
.	8e'/	.
.	8e'/J	.
=54	=54	=54
4.E\ 4.cn\)	8e'/L	.
.	8e'/	.
.	8e'/J	.
=55	=55	=55
(4.E\ 4.A\ 4.cn\	8e'/L	<
.	8e/	(
.	8e'/J	(
=56	=56	=56
4.D#\ 4.A\ 4.B\	8a'/L	(
.	8a'/	(
.	8a'/J	(
=57	=57	=57
4.E\) 4.B\	8g#'/L	(
.	8g#'/	(
.	8g#'/J	(
=58	=58	=58
(4.AA\ 4.A\	8f#'/L	(
.	8f#'/	(
.	8f#'/J	[
=59	=59	=59
4.Cn\ 4.A\	8e/L	mf
.	8d#/	.
.	[8e/J	.
=60	=60	=60
4.BB'\) 4.B'\	8e/L]	.
.	16d#/L	.
.	16c#/J	.
.	8d#/J	.
*clefG2	*	*
=61	=61	=61
(16b/LL	8dd#'\ 8ff#'\L	.
16B/JJ)	.	.
*clefF4	*	*
(16e\LL	8ee'\ 8gg#'\	pp
16E\	.	.
(16B\)	8ff#'\ 8aa'\J	.
16BB\JJ)	.	.
=62	=62	=62
4.EE^/ 4.E^/	(16gg#\LL	.
.	16ff#\	.
.	16gg#\	.
.	16aa\J	.
.	8gg#'\ 8bb'\J)	.
=63	=63	=63
(16e\LL	8ee'\ 8gg#'\L	.
16E\)	.	.
(16B\	8dd#'\ 8ff#'\	.
16BB\)	.	.
(16E\	8ee'\J	.
16EE\JJ)	.	.
=64	=64	=64
4.BBB^/ 4.BB^/	(16ff#\LL	.
.	16ee\	.
.	16ff#\	.
.	16gg#\J	.
.	8ff#'\ 8aa'\J)	.
*clefG2	*	*
=65	=65	=65
(16b/LL	8dd'\ 8ff#'\L	.
16B/JJ)	.	.
*clefF4	*	*
(16e\LL	8ee'\ 8gg#'\	.
16E\)	.	.
(16B\	8ff#'\ 8aa'\J	.
16BB\JJ)	.	.
=66	=66	=66
8E'\L	(16gg#\LL	.
.	16ff#\	.
8F#'\	16gg#\	.
.	16aa\	.
8G#'\J	16bb\	.
.	16b\JJ	.
=67	=67	=67
8A'\L	16cc#\LL	.
.	16aa\	.
8B'\	16gg#\	.
.	16ff#\	.
8BB'\J	16ee\	.
.	16dd#\JJ	.
*clefG2	*	*
=68	=68	=68
16e/LL	16bb'\LK)	.
16ee/	(8gg#\	.
16d#/	.	.
16dd#/	8ff#\	.
16c#/	.	.
16cc#/JJ	16ee\Jk	.
=69	=69	=69
4.B/	16dd#\LL	.
.	16cc#\	.
.	16b\	.
.	16a\	.
.	16g#\	.
.	16f#\JJ)	.
*clefF4	*	*
=70	=70	=70
16E\LL	16bb'\LK	.
16e\	(8gg#\	.
16D#\	.	.
16d#\	8ff#\	.
16C#\	.	.
16c#\JJ	16ee\Jk	.
=71	=71	=71
4.BB/	16dd#\LL	.
.	16cc#\	.
.	16b\	.
.	16a\	.
.	16g#\	.
.	16f#\JJ)	.
=72	=72	=72
16EE/LL	16bb'\LK	.
16E/	(8gg#\	.
16DD#/	.	.
16D#/	8ff#\	.
16CC#/	.	.
16C#/JJ	16ee\Jk	.
=73	=73	=73
4.BBB/	16dd#\LL	.
.	16cc#\	.
.	16b\	.
.	16a\	.
.	16g#\	.
.	16f#\JJ	.
=74	=74	=74
4EE/	16e\LL	.
.	16g#\	.
.	16b\	.
.	16ee\	.
8E\	16gg#\	.
.	16bb\JJ	.
=75	=75	=75
(8A\L	16cc#\LL	.
.	16aa\J	.
8B'\)	8ee'\)	.
8BB'\J	8dd#'\J	.
*clefG2	*	*
=76	=76	=76
16e/LL	16bb'\LK	.
16ee/	(8gg#\	.
16d#/	.	.
16dd#/	8ff#\	.
16c#/	.	.
16cc#/JJ	16ee\Jk	.
=77	=77	=77
4.B/	16dd#\LL	.
.	16cc#\	.
.	16b\	.
.	16a\	.
.	16g#\	.
.	16f#\JJ)	.
*clefF4	*	*
=78	=78	=78
16E\LL	16bb'\LK	.
16e\	(8gg#\	.
16D#\	.	.
16d#\	8ff#\	.
16C#\	.	.
16c#\JJ	16ee\Jk	.
=79	=79	=79
4.BB/	16dd#\LL	.
.	16cc#\	.
.	16b\	.
.	16a\	.
.	16g#\	.
.	16f#\JJ)	.
=80	=80	=80
16EE/LL	16bb'\LK	.
16E/	(8gg#\	.
16DD#/	.	.
16D#/	8ff#\	.
16CC#/	.	.
16C#/JJ	16ee\Jk	.
=81	=81	=81
4.BBB/	16dd#\LL	.
.	16cc#\	.
.	16b\	.
.	16a\	.
.	16g#\	.
.	16f#\JJ	.
=82	=82	=82
4EE/	16e\LL	.
.	16g#\	.
.	16b\	.
.	16ee\	.
8E\	16gg#\	.
.	16bb\JJ	.
=83	=83	=83
(8A\L	16cc#\LL	.
.	16aa\J	.
8B'\)	8ee'\)	.
8BB'\J	8dd#'\J	.
=84	=84	=84
8r	(16bb\LL	.
.	16gg#\	.
8GG#/L	16ee\	.
.	16b\	.
8EE/J	16g#\	.
.	16e\JJ	.
=85	=85	=85
8AA/L	16c#/LL	.
.	16a/J	.
8BB/	8e'/)	.
8BBB'/J	8d#'/J	.
=86	=86	=86
4.EE^/	4.e^/	.
=87:|!|:	=87:|!|:	=87:|!|:
*>B	*>B	*>B
4.EE/	(8e'/L	p
.	8e'/	.
.	8e'/J	mf
=88	=88	=88
(4.dn\	8e'/L	.
.	8e'/	.
.	8e'/J)	.
=89	=89	=89
4.cn\)	8e'\ 8ee'\L	<
.	8e'\ 8ee'\	(
.	8e'\ 8ee'\J	[
=90	=90	=90
4.cn\	(16ggn\LL	f
.	16ccn\	.
.	16dd\	.
.	16b\	.
.	16cc\	.
.	16gn\JJ	.
=91	=91	=91
4.B\	16dd/LL	.
.	16fn/	.
.	16gn/	.
.	16e/	.
.	16f/	.
.	16d/JJ	.
=92	=92	=92
(16cn\LL	4e/)	.
16E\	.	.
16Fn\	.	.
16D\	.	.
16E\	8ccn\ [8ee\	.
16Cn\JJ	.	.
=93	=93	=93
4.GGn/)	8ee\L]	.
.	16dd\L	.
.	16ccn\J	.
.	8dd\J	.
=94	=94	=94
4.r	4.r	.
*clefG2	*	*
=95	=95	=95
(4.gn/	8b-'\ (8bb-'\L	p
.	8b-'\ 8bb-'\	.
.	8b-'\ 8bb-'\J)	.
=96	=96	=96
4.fn/	8b-'\ 8aa-'\ 8bb-'\L	.
.	8b-'\ 8aa-'\ 8bb-'\	.
.	8b-'\ 8aa-'\ 8bb-'\J	.
=97	=97	=97
4.e-/ 4.b-/	8ggn'\ 8bb-'\L	.
.	8gg'\ 8bb-'\	.
.	8gg'\ 8bb-'\J	.
=98	=98	=98
*	*^	*
4.d-/ 4.b-/	4.bb-/	8ffn\L	.
.	.	8een\	.
.	.	8ff\J	.
*	*v	*v	*
=99	=99	=99
4.cn/) 4.b-/	16bb-\LL	f
.	16ee\	.
.	16ffn\	.
.	16dd\	.
.	16ee\	.
.	16ccn\JJ	.
=100	=100	=100
(16ccn/LL	8ggn\ 8bb-\L	.
16cn/JJ)	.	.
*clefF4	*	*
(16fn\LL	8ffn'\ 8aa'\	.
16Fn\)	.	.
(16cn\	8ee'\ 8gg'\J	.
16Cn\JJ)	.	.
=101	=101	=101
4.FFn^/ 4.Fn^/	(16aa\LL	.
.	16ggn\	.
.	16aa\	.
.	16bb-\J	.
.	8aa'\ 8cccn'\J)	.
=102	=102	=102
(16fn\LL	8ffn'\ 8aa'\L	.
16Fn\)	.	.
(16cn\	8ee'\ 8ggn'\	.
16Cn\)	.	.
(16Fn\	8ff'\J	.
16FFn\JJ)	.	.
=103	=103	=103
4.CCn^/ 4.Cn^/	(16ggn\LL	.
.	16ffn\	.
.	16gg\	.
.	16aa\J	.
.	8gg'\ 8bb-'\J)	.
=104	=104	=104
(16cn/LL	8ggn'\ 8bb-'\L	.
16Cn/)	.	.
(16Fn/	8ffn'\ 8aa'\	.
16FFn/)	.	.
(16C/	8ee'\ 8gg'\J	.
16CCn/JJ)	.	.
=105	=105	=105
4.FFn^/ 4.Fn^/	(16aa-\LL	.
.	16ggn\	.
.	16aa-\	.
.	16bb-\J	.
.	8aa-'\ 8cccn'\J)	p
=106	=106	=106
8Fn'\ 8e-'\L	4.r	.
8F'\ 8e-'\	.	.
8F'\ 8e-'\J	.	.
=107	=107	=107
8Fn'\ 8d'\L	4.r	.
8F'\ 8d'\	.	.
8F'\ 8d'\J	.	.
=108	=108	=108
8Fn'\ 8cn'\L	4.aa-\	<
8F'\ 8c'\	.	(
8F'\ 8c'\J	.	(
=109	=109	=109
8Fn\ 8B\ 8d\L	4.dd\ 4.ddd\	(
8F'\ 8B'\ 8d'\	.	(
8F'\ 8B'\ 8d'\J	.	(
=110	=110	=110
8Fn'\ 8B'\ 8d'\L	4.dd\ 4.ddd\	(
8F'\ 8B'\ 8d'\	.	(
8F'\ 8B'\ 8d'\J	.	[
=111	=111	=111
8Fn'\ 8B'\ 8d'\L	4.dd\ 4.ddd\	f
8F'\ 8B'\ 8d'\	.	.
8F'\ 8B'\ 8d'\J	.	.
=112	=112	=112
8Fn'\ 8B'\ 8d'\L	4.dd\ 4.ddd\	>
8F'\ 8B'\ 8d'\	.	)
8F'\ 8B'\ 8d'\J	.	)
=113	=113	=113
8E'\ 8B'\ 8d'\L	4.dd\ 4.gg#\ 4.ddd\	)
8E'\ 8B'\ 8d'\	.	)
8E'\ 8B'\ 8d'\J	.	]
=114	=114	=114
*	*^	*
8E'\ 8A'\ 8cn'\L	(8cccn/L	4.ee\	mf
8E\ 8A\ 8c\	8bb/)	.	.
8E'\ 8A'\ 8c'\J	(8ccc/J	.	.
=115	=115	=115	=115
8E'\ 8B'\ 8d'\L	8bb/L	4.dd\	.
8E'\ 8B'\ 8d'\	8aa/	.	.
8E'\ 8B'\ 8d'\J	8bb/J)	.	.
=116	=116	=116	=116
8E'\ 8d#'\L	(8aa/L	4.ccn\	.
8E'\ 8d#'\	8gg#/)	.	.
8E'\ 8d#'\J	[8aa/J	.	.
=117	=117	=117	=117
4.E^\ 4.e^\	8aa/L]	4.b\	.
.	16gg#/L	.	.
.	16ff#/J	.	.
.	8ee/J	.	.
*	*v	*v	*
*clefG2	*	*
=118	=118	=118
(16ee/LL	8gg#'\ 8bb'\L	f
16e/)	.	.
(16a/	8aa'\ 8ccc#'\	.
16A/JJ)	.	.
*clefF4	*	*
(16e\LL	8bb'\ 8ddd'\J	.
16E\JJ)	.	.
=119	=119	=119
4.AA^\ 4.A^\	(16ccc#\LL	.
.	16bb\	.
.	16aa\	.
.	16gg#\J	.
.	8aa'\J)	.
=120	=120	=120
(16a\LL	8aa'\ 8ccc#'\L	.
16A\)	.	.
(16e\	8gg#'\ 8bb'\	.
16E\)	.	.
(16A\	8aa'\J	.
16AA\JJ)	.	.
=121	=121	=121
4.EE^/ 4.E^/	(16bb\LL	.
.	16aa\	.
.	16bb\	.
.	16ccc#\J	.
.	8gg#'\ 8bb'\J)	.
=122	=122	=122
(16e\LL	8gg#'\ 8bb'\L	.
16E\)	.	.
(16A\	8aa'\ 8ccc#'\	.
16AA\)	.	.
(16E\	8bb'\ 8ddd'\J	.
16EE\JJ)	.	.
=123	=123	=123
8AA'/L	(16ccc#\LL	.
.	16bb\	.
8BB'/	16aa\	.
.	16gg#\	.
8C#'/J	16aa\	.
.	16ee\JJ	.
=124	=124	=124
8D'/L	16ff#\LL	.
.	16dd\	.
8E'/	16cc#\	.
.	16b\	.
8EE'/J	16a\	.
.	16g#\JJ)	.
=125	=125	=125
4.AA/	8A'/ 8a'/L	p
.	8A'/ 8a'/	.
.	8A'/ 8a'/J	.
=126	=126	=126
4.AA\ 4.Gn\	8B-'/ 8gn'/L	<
.	8B-'/ 8g'/	(
.	8B-'/ 8g'/J	(
=127	=127	=127
4.AA\ 4.Gn\	8A'/ 8c#'/L	(
.	8A'/ 8c#'/	(
.	8A'/ 8c#'/J	(
=128	=128	=128
4.AA/ 4.Fn/	8A'/ 8d'/L	(
.	8A'/ 8d'/	(
.	8A'/ 8d'/J	[
=129	=129	=129
4.GG#/ 4.E/	8d'/ 8e'/L	mf
.	8d'/ 8e'/	.
.	8d'/ 8e'/J	.
=130	=130	=130
4.AA/ 4.E/	8cn'/ 8e'/L	.
.	8c'/ 8e'/	.
.	8c'/ 8e'/J	.
=131	=131	=131
4.DD/ 4.D/	8B'/ 8d'/L	.
.	8B'/ 8d'/	.
.	8B'/ 8d'/J	.
=132	=132	=132
*	*^	*
4.FFn/ 4.D/	(4.d'/	8A\L	.
.	.	8G#\	.
.	.	[8A\J	.
*	*v	*v	*
=133	=133	=133
4.EE/ 4.E/	8A/] 8cn/L)	.
.	(16B/L	>
.	16A/J)	)
.	8B/J	]
*clefG2	*	*
=134	=134	=134
(16ee/LL	8gg#'\ 8bb'\L	f
16e/)	.	.
(16a/	8aa'\ 8ccc#'\	mp
16A/JJ)	.	.
*clefF4	*	*
(16e\LL	8bb'\ 8ddd'\J	.
16E\JJ)	.	.
=135	=135	=135
4.AA^\ 4.A^\	(16ccc#\LL	.
.	16bb\	.
.	16aa\	.
.	16gg#\J	.
.	8aa'\J)	.
=136	=136	=136
(16a\LL	8aa'\ 8ccc#'\L	.
16A\)	.	.
(16e\	8gg#'\ 8bb'\	.
16E\)	.	.
(16A\	8aa'\J	.
16AA\JJ)	.	.
=137	=137	=137
4.EE^/ 4.E^/	(16bb\LL	.
.	16aa\	.
.	16bb\	.
.	16ccc#\J	.
.	8bb'\J)	.
=138	=138	=138
(16e\LL	8gg#'\ 8bb'\L	.
16E\)	.	.
(16A\	8aa'\ 8ccc#'\	.
16AA\)	.	.
(16E\	8bb\ 8ddd\J	.
16EE\JJ)	.	.
=139	=139	=139
8AA'/L	(16ccc#\LL	.
.	16bb\	.
8BB'/	16aa\	.
.	16gg#\	.
8C#'/J	16aa\	.
.	16ee\JJ	.
=140	=140	=140
8D'/L	16ff#\LL	.
.	16dd\	.
8E'/	16cc#\	.
.	16b\	.
8EE'/J	16a\	.
.	16g#\JJ	.
=141	=141	=141
16A\LL	16ee'\LK)	.
16a\	(8cc#\	.
16G#\	.	.
16g#\	8b\	.
16F#\	.	.
16f#\JJ	16a\Jk	.
=142	=142	=142
4.E\	16g#/LL	.
.	16f#/	.
.	16e/	.
.	16d/	.
.	16c#/	.
.	16B/JJ)	.
=143	=143	=143
16AA/LL	16ee'\LK	.
16A/	(8cc#\	.
16GG#/	.	.
16G#/	8b\	.
16FF#/	.	.
16F#/JJ	16a\Jk	.
=144	=144	=144
4.EE/	16g#/LL	.
.	16f#/	.
.	16e/	.
.	16d/	.
.	16c#/	.
.	16B/JJ	.
=145	=145	=145
4AA/	16A/LL	.
.	16c#/	.
.	16e/	.
.	16a/JJ	.
8AA/	16cc#\LL	.
.	16aa\JJ	.
=146	=146	=146
8D/L	16ff#\LL	.
.	16dd\	.
8E'/	16cc#\	.
.	16b\	.
8EE'/J	16a\	.
.	16g#\JJ	.
=147	=147	=147
16A\LL	16ee'\LK)	.
16a\	(8cc#\	.
16G#\	.	.
16g#\	8b\	.
16F#\	.	.
16f#\JJ	16a\Jk	.
=148	=148	=148
4.E\	16g#/LL	.
.	16f#/	.
.	16e/	.
.	16d/	.
.	16c#/	.
.	16B/JJ	.
=149	=149	=149
16AA/LL	16ee'\LK)	.
16A/	(8cc#\	.
16GG#/	.	.
16G#/	8b\	.
16FF#/	.	.
16F#/JJ	16a\Jk	.
=150	=150	=150
4.EE/	16g#/LL	.
.	16f#/	.
.	16e/	.
.	16d/	.
.	16c#/	.
.	16B/JJ	.
=151	=151	=151
4AA/	16A/LL	.
.	16c#/	.
.	16e/	.
.	16a/JJ	.
8AA/	16cc#\LL	.
.	16aa\JJ	.
=152	=152	=152
8D/L	16ff#\LL	.
.	16dd\	.
8E'/	16cc#\	.
.	16b\	.
8EE'/J	16a\	.
.	16g#\JJ)	.
=153	=153	=153
8AA'/L	(16aa\LL	.
.	16ee\	.
8BB'/	16cc#\	.
.	16a\	.
8C#'/J	16e\	.
.	16c#\JJ	.
=154	=154	=154
8D'/L	16f#/LL	.
.	16d/	.
8E'/	16c#/	.
.	16B/	.
8EE'/J	16A/	.
.	16G#/JJ	.
=155	=155	=155
4.AAA^/ 4.AA^/	4.A^/)	.
==:|!	==:|!	==:|!
*-	*-	*-
!!!ENC: Craig Stuart Sapp
!!!END: 2006/08/11
